!!!COM: Palestrina, Giovanni Perluigi da
!!!OPR: Missa O Rex gloriae
!!!OMD: Credo
!!!OTL: First Section
**kern	**kern	**kern	**kern
*Ibass	*Itenor	*Icalto	*Icant
!Bassus	!Tenor	!Altus	!Cantus
*clefF4	*clefGv2	*clefG2	*clefG2
*k[b-]	*k[b-]	*k[b-]	*k[b-]
*G:dor	*G:dor	*G:dor	*G:dor
*M4/2	*M4/2	*M4/2	*M4/2
=1	=1	=1	=1
1r	1d	1r	1r
[1d	2.f	2r	[1a
.	.	2d	.
.	4g	.	.
=2	=2	=2	=2
1d]	2a	2.f	1a]
.	2f	.	.
.	.	4g	.
1A	2e	2a	1cc
.	2a	2f	.
=3	=3	=3	=3
1c	4g	2e	1cc
.	4f	.	.
.	2e	2.a	.
2B-	1d	.	2dd
.	.	4g	.
2B-	.	[2g	2dd
=4	=4	=4	=4
1A	2e	2g]	1cc
.	4d	2f#	.
.	4c	.	.
2G	[1d	2g	2.b-
2G	.	2g	.
.	.	.	4cc
=5	=5	=5	=5
2G	1d]	2b-	1dd
2F	.	2a	.
1B-	2r	2f	2r
.	2d	2g	2dd
=6	=6	=6	=6
1A	2f	1a	2dd
.	2e	.	2cc
4D	1d	2r	1ff
4E	.	.	.
4F	.	[2a	.
4G	.	.	.
=7	=7	=7	=7
1A	2c#	4a]	2ee
.	.	8g	.
.	.	8f	.
.	2c#	2e	2a
1G	1d	1g	1b-
=8	=8	=8	=8
2D	1d	2f#	1a
2D	.	2a	.
2G	2r	2b-	1r
[2G	2G	[2b-	.
=9	=9	=9	=9
4G]	2d	4b-]	1r
4G	.	4b-	.
2F#	2.d	2a	.
2G	.	2b-	1g
.	4d	.	.
2E	2c#	2g	.
=10	=10	=10	=10
1D	2d	2.f	2dd
.	2B-	.	2.dd
.	.	8e	.
.	.	8d	.
1r	1A	1e	.
.	.	.	4dd
.	.	.	2cc#
=11	=11	=11	=11
1G	1.d	2r	2dd
.	.	2g	2b-
2d	.	2f	2a
[2d	2f	[2a	2dd
=12	=12	=12	=12
2d]	2d	2a]	2ff
2c#	2e	2a	2.ee
2d	2f	2b-	.
.	.	.	4dd
2B-	4e	2g	[2dd
.	4d	.	.
=13	=13	=13	=13
1A	2e	0a	2dd]
.	2e	.	2cc#
2r	2.d	.	[1dd
[2d	.	.	.
.	4e	.	.
=14	=14	=14	=14
2d]	2f	2r	1dd]
2B-	2g	1g	.
2c	1a	.	2r
2d	.	2f	[2dd
=15	=15	=15	=15
2B-	0r	2g	2dd]
2A	.	2a	2cc
1G	.	2b-	2dd
.	.	2g	2ee
=16	=16	=16	=16
2.d	2r	0a	2ff
.	1d	.	2dd
8c	.	.	.
8B-	.	.	.
1A	.	.	1ee
.	2c	.	.
=17	=17	=17	=17
1G	2d	1b-	1gg
.	2e	.	.
1d	2f	2.a	2.ff
.	2d	.	.
.	.	4g	8ee
.	.	.	8dd
=18	=18	=18	=18
1A	1e	4a	2cc
.	.	4b-	.
.	.	2.cc	2.ee
1G	1g	.	.
.	.	4b-	4dd
.	.	2b-	[2dd
=19	=19	=19	=19
1A	2f	2.a	2dd]
.	2.e	.	2cc#
.	.	4g	.
1B-	.	2f	1dd
.	4d	.	.
.	[2d	4e	.
.	.	4d	.
=20	=20	=20	=20
1A	2d]	1e	2r
.	2c#	.	2.a
2r	1d	2f	.
.	.	.	4a
[2B-	.	[2d	2f
=21	=21	=21	=21
4B-]	0r	4d]	2g
4B-	.	4d	.
2A	.	2c	2a
1G	.	2d	2b-
.	.	2e	2g
=22	=22	=22	=22
1D	2r	2f	2.a
.	2.A	2d	.
.	.	.	4b-
1r	.	2e	2cc
.	4A	.	.
.	2F	2f	[2dd
=23	=23	=23	=23
1r	2G	1e	2dd]
.	2A	.	2cc#
1G	2B-	2.d	1dd
.	2G	.	.
.	.	4e	.
=24	=24	=24	=24
2D	2.A	4f	0r
.	.	4g	.
1F	.	1a	.
.	4B-	.	.
.	2c	.	.
4E	[2d	4g	.
4D	.	4f	.
=25	=25	=25	=25
2E	2d]	1g	1r
2E	2c#	.	.
1D	2d	2r	2r
.	[2d	[2f#	[2a
=26	=26	=26	=26
0r	2d]	2f#]	2a]
.	2G	2g	2b-
.	2A	2e	2cc
.	2B-	2d	2dd
=27	=27	=27	=27
1r	1G	1g	1b-
2r	2d	2f#	2a
[2G	[2d	[2g	[2b-
=28	=28	=28	=28
2G]	2d]	2g]	2b-]
2c	2e	2g	2cc
2B-	2f	2b-	2dd
2G	2g	2b-	2dd
=29	=29	=29	=29
1A	2e	1a	1cc
.	1f	.	.
2c	.	2.g	2cc
2c	2e	.	2cc
.	.	4g	.
=30	=30	=30	=30
1F	2f	2f	1a
.	1d	2a	.
2r	.	2b-	1r
2A	2c	2a	.
=31	=31	=31	=31
2B-	2d	4g	1r
.	.	4f	.
2A	1f	2.a	.
1B-	.	.	2r
.	.	8g	.
.	.	8f	.
.	4e	2g	[2dd
.	4d	.	.
=32	=32	=32	=32
1A	1e	2a	2dd]
.	.	2a	2cc
1r	1d	2b-	2dd
.	.	2a	[2ff
=33	=33	=33	=33
1r	2r	2b-	2ff]
.	1d	2b-	4ee
.	.	.	4dd
1A	.	2.a	2ee
.	2c	.	2ee
.	.	4g	.
=34	=34	=34	=34
2B-	2d	2.f	2dd
2A	2.f	.	2cc
.	.	4e	.
2B-	.	1d	2dd
.	4e	.	.
2B-	[2d	.	[2ff
=35	=35	=35	=35
1A	2d]	1r	2ff]
.	2c	.	2ee
1r	2B-	1f	[1dd
.	2B-	.	.
=36	=36	=36	=36
0r	1G	2g	2dd]
.	.	1b-	4cc
.	.	.	4b-
.	1F	.	1cc
.	.	2a	.
=37	=37	=37	=37
0r	1.B-	2g	1.dd
.	.	2f	.
.	.	2g	.
.	2c	[2a	2cc
=38	=38	=38	=38
0r	2d	2a]	2.b-
.	2e-	1g	.
.	.	.	8a
.	.	.	8g
.	1d	.	1a
.	.	2f#	.
=39	=39	=39	=39
2r	1G	1g	2g
1G	.	.	1b
.	2.d	2.g	.
2G	.	.	2b
.	4d	4g	.
=40	=40	=40	=40
2G	2d	2g	2b
2c	2e	2g	2cc
1B-	1f	1b-	1dd
=41	=41	=41	=41
2G	2g	2b-	2dd
1B-	1f	1b-	1dd
2F	2f	2a	2cc
=42	=42	=42	=42
2.G	2.d	2.g	2.b-
4G	4d	4g	4b-
2G	2d	2g	2b-
2F	2d	2a	2a
=43	=43	=43	=43
1G	2d	1b-	1g
.	2e	.	.
2F	2.f	2a	1cc
[2F	.	[2a	.
.	8e	.	.
.	8d	.	.
=44	=44	=44	=44
2F]	1c	2a]	2r
2E	.	2g	2cc
2.D	2r	2.f	2b-
.	[2f	.	[2a
4E	.	4g	.
=45	=45	=45	=45
2F	2f]	4a	2a]
.	.	4b-	.
2C	2e	2cc	2g
1D	2.d	2b-	1f
.	.	[2a	.
.	4d	.	.
=46	=46	=46	=46
1A	2c#	4a]	2e
.	.	4g	.
.	1d	2f	2a
1A	.	2e	1a
.	2c#	2e	.
=47	=47	=47	=47
0D	0d	1f#	2r
.	.	.	2a
.	.	2r	1dd
.	.	2d	.
=48	=48	=48	=48
0r	0r	1a	2cc
.	.	.	2a
.	.	2g	2b-
.	.	2e	2cc
=49	=49	=49	=49
2r	1d	2f	0dd
2G	.	2g	.
1d	1f	2a	.
.	.	2a	.
=50	=50	=50	=50
2c	2e	1cc	0r
2A	2c	.	.
2B-	2d	2b-	.
2c	2e	2g	.
=51	=51	=51	=51
2.d	2.f	2b-	1r
.	.	2.a	.
4c	4e	.	.
2B-	1d	.	2r
.	.	4g	.
4A	.	[2g	2g
4G	.	.	.
=52	=52	=52	=52
1A	1c	2g]	1cc
.	.	2f	.
1G	1d	2.g	2b-
.	.	.	2g
.	.	8f	.
.	.	8e	.
=53	=53	=53	=53
1d	1r	1f	2a
.	.	.	2b-
2.c	2r	1e	1cc
.	2g	.	.
4B-	.	.	.
=54	=54	=54	=54
4A	2.f	2r	1cc
4G	.	.	.
2F	.	2a	.
.	4e	.	.
1G	4d	2.g	2r
.	4c	.	.
.	2B-	.	2dd
.	.	4f	.
=55	=55	=55	=55
1C	2c	4e	2.cc
.	.	4d	.
.	2e	1c	.
.	.	.	4b-
[1F	2.f	.	4a
.	.	.	4g
.	.	2A	[2f
.	4e	.	.
=56	=56	=56	=56
2F]	4d	2a	2f]
.	4c	.	.
2.G	4B-	2.b-	2d
.	4A	.	.
.	4G	.	1dd
4F#	4A	4a	.
2G	4B-	[2g	.
.	4G	.	.
=57	=57	=57	=57
1D	1A	2g]	1dd
.	.	2f#	.
1G	1G	1g	1b
=58	=58	=58	=58
1r	1r	1r	1r
1G	1g	1b-	1dd
=59	=59	=59	=59
2B-	2f	2b-	2dd
2B-	2f	2b-	2dd
2F	2f	2a	2cc
2G	2d	2g	2b-
=60	=60	=60	=60
2D	2d	2f	2a
2D	2a	2d	2ff
1F	1a	1c	1ff
=61	=61	=61	=61
2C	2g	2cc	2ee
2D	2f	2a	2dd
1A	1e	1a	1cc#
=62	=62	=62	=62
2A	2e	2a	2cc#
1D	1f	1a	1dd
2F	2f	2a	2cc
=63	=63	=63	=63
2G	2d	2g	2b-
2D	2d	2f	2a
[1G	[1d	2.b-	2.g
.	.	4a	4a
=64	=64	=64	=64
2G]	2d]	2g	2b-
2C	2e-	2g	2cc
1D	1d	1f#	1a
=65	=65	=65	=65
1G	1d	1g	1b
1C	1e	1g	1cc
=66	=66	=66	=66
1F	1f	1a	1.cc
[1G	[1d	[1g	.
.	.	.	4b
.	.	.	4a
=67	=67	=67	=67
1G]	1d]	1g]	1b
[1C	[1e-	[1g	1cc
=68	=68	=68	=68
1C]	1e-]	1g]	1cc
[1G	[1d	[1g	[1b
=69	=69	=69	=69
1G]	1d]	1g]	1b]
*-	*-	*-	*-
!!!CDT: 1525/^1526/-1594/2/2
!!!OCY: Italia
!!!AGN: Mass (Parody)
!!!AST: renaissance, vocal
!!!ASW: Motet 1563 (Palestrina)
!!!PWK: Masses, Book 12
!!!RNB: Cadence finals: D
!!!YOR: Le Opere Complete, v. 29, p. 30
!!!YOO: Rome, Italy: Fratelli Scalera
!!!END: 1992//
!!!EED: John Miller
!!!YEC: Copyright 2000, John Miller
!!!YEN: United States of America
!!!YEM: Rights to all derivative electronic formats reserved.
!!!YEM: Refer to licensing agreement for further details.
!!!YEM: This file must be accompanied by the licensing agreement.
!!!YEM: A copy of the licensing agreement may be found at http://www.music-cog.ohio-state.edu/HumdrumDatabases/Palestrina/license.txt
!!!EMD: converted to Humdrum by Bret Aarden
